!!!SOCIAL_FUNCTION:	songs connected with war and hunting
!!!PDT:	1932
!!!OTL: No_33_You_Are_Struggling.krn
!!!REG: Wisconsin
!!!LANG: Non-Tone
!!!LING_GROUP: Algonquin
**kern
*staff1
=1-
*clefF4
*k[f#c#g#d#]
*M2/4
8B\L
16A\L
16G#\JJ
4F#\
=2
8E/L
16C#/L
16BB/JJ
8BB/
8r
=3
8F#\L
16F#\L
16F#\JJ
4E\
=4
8F#\L
16E\L
16E\JJ
8BB/
8r
=5
8E/L
16C#/L
16BB/JJ
8BB/L
8C#/J
=6||
*M5/8
8C#/L
8C#/
16C#/Jk
16r
8F#\L
8F#\J
=7||
*M2/4
4E\
16E/LL
16C#/
16BB/
16C#/JJ
=8
4BB/
8BB/L
8BB/J
=9
2BB/
=10
4BB/
4r
==
*-
